assets/Fried shrimp/Flat/fried_shrimp_flat.svg

<svg width="32" height="32" viewBox="0 0 32 32" fill="none" xmlns="http://www.w3.org/2000/svg">
<path d="M13.88 28.89V20.7C12.32 21.3 10.23 20.54 10.12 18.34C10.11 18.24 10.11 18.14 10.11 18.03V5C8.87 5 7.86 6.01 7.86 7.25V11.69C7.86 11.86 7.72 12 7.55 12C7.38 12 7.24 11.86 7.24 11.69V7.25C7.25 6.01 6.24 5 5 5V17.93C5 25.14 8.99 28.36 14.23 28.93C14.12 28.92 14 28.91 13.88 28.89Z" fill="#FF6723"/>
<path d="M18.59 2C14.68 2 11.51 5.17 11.51 9.08V10.18C11.51 12.32 12.63 14.19 14.32 15.25C15.11 15.74 15.57 16.62 15.57 17.55V18.18C15.57 19.5 14.83 20.35 13.89 20.71V28.91C14.56 29 15.26 29.04 15.97 29.05C22.04 29.07 26.99 24.13 26.99 18.06V10.4C26.98 5.76 23.22 2 18.59 2Z" fill="#FFB02E"/>
<path d="M17.52 7.36002C17.52 8.30443 16.7544 9.07002 15.81 9.07002C14.8656 9.07002 14.1 8.30443 14.1 7.36002C14.1 6.41562 14.8656 5.65002 15.81 5.65002C16.7544 5.65002 17.52 6.41562 17.52 7.36002Z" fill="#FF822D"/>
<path d="M14.1 11.83C14.586 11.83 14.98 11.436 14.98 10.95C14.98 10.464 14.586 10.07 14.1 10.07C13.614 10.07 13.22 10.464 13.22 10.95C13.22 11.436 13.614 11.83 14.1 11.83Z" fill="#FF822D"/>
<path d="M17.79 12.31C18.4085 12.31 18.91 11.8086 18.91 11.19C18.91 10.5714 18.4085 10.07 17.79 10.07C17.1714 10.07 16.67 10.5714 16.67 11.19C16.67 11.8086 17.1714 12.31 17.79 12.31Z" fill="#FF822D"/>
</svg>

<svg xmlns="http://www.w3.org/2000/svg" width="32" height="32" fill="none"><path fill="#FF6723" d="M13.88 28.89V20.7c-1.56.6-3.65-.16-3.76-2.36-.01-.1-.01-.2-.01-.31V5C8.87 5 7.86 6.01 7.86 7.25v4.44c0 .17-.14.31-.31.31-.17 0-.31-.14-.31-.31V7.25C7.25 6.01 6.24 5 5 5v12.93c0 7.21 3.99 10.43 9.23 11-.11-.01-.23-.02-.35-.04Z"/><path fill="#FFB02E" d="M18.59 2a7.08 7.08 0 0 0-7.08 7.08v1.1a5.97 5.97 0 0 0 2.81 5.07c.79.49 1.25 1.37 1.25 2.3v.63c0 1.32-.74 2.17-1.68 2.53v8.2c.67.09 1.37.13 2.08.14 6.07.02 11.02-4.92 11.02-10.99V10.4c-.01-4.64-3.77-8.4-8.4-8.4Z"/><path fill="#FF822D" d="M17.52 7.36a1.71 1.71 0 1 1-3.42 0 1.71 1.71 0 0 1 3.42 0ZM14.1 11.83a.88.88 0 1 0 0-1.76.88.88 0 0 0 0 1.76ZM17.79 12.31a1.12 1.12 0 1 0 0-2.24 1.12 1.12 0 0 0 0 2.24Z"/></svg>
